X: 39222
T: Ta Mee Nish Keayney
R: hornpipe
M: 4/4
K: Bminor
B2 B>A F>F F>F|d2 d>B c2 d>e|f2 f>e d2 e>e|f5 d>e|
f2 f>d e>e f>e|d2 d>B c2 (3ABA|B2 B>A F>F F>F|
d2 d>B c2 (3FGA|B2 B>A F>E (3FGA|B5 z2||

